X: 1
T: The Barren Rocks Of Aden
C: Pipe Major Alexander MacKellar
R: March
M: 2/4
L: 1/8
K: Dmaj
|:e | f>g f>e | df Ad | ce A>e | fA d>e |
f>g f>e | df Ad | ce A\f/>e/ | d2 d :|
|: g | a>f d>f | ef Ae/f/ | ge ce | df Af/g/ |
a>f d>f | ef Ae/f/ | ge cA | d2 d :|
